SVG_Azure_Grouped/Dynamics 365/Application Connected Store.svg

<?xml version="1.0" encoding="UTF-8" standalone="no"?>
<!-- Generated by Microsoft Visio, SVG Export Application Connected Store.svg Page-1 -->

<svg
   xmlns:dc="http://purl.org/dc/elements/1.1/"
   xmlns:cc="http://creativecommons.org/ns#"
   xmlns:rdf="http://www.w3.org/1999/02/22-rdf-syntax-ns#"
   xmlns:svg="http://www.w3.org/2000/svg"
   xmlns="http://www.w3.org/2000/svg"
   xmlns:sodipodi="http://sodipodi.sourceforge.net/DTD/sodipodi-0.dtd"
   xmlns:inkscape="http://www.inkscape.org/namespaces/inkscape"
   width="0.78443134in"
   height="0.78744942in"
   viewBox="0 0 56.479054 56.696499"
   xml:space="preserve"
   class="st9"
   version="1.1"
   id="svg85"
   sodipodi:docname="Application Connected Store.svg"
   style="font-size:12px;overflow:visible;color-interpolation-filters:sRGB;fill:none;fill-rule:evenodd;stroke-linecap:square;stroke-miterlimit:3"
   inkscape:version="0.92.5 (2060ec1f9f, 2020-04-08)"><metadata
   id="metadata89"><rdf:RDF><cc:Work
       rdf:about=""><dc:format>image/svg+xml</dc:format><dc:type
         rdf:resource="http://purl.org/dc/dcmitype/StillImage" /></cc:Work></rdf:RDF></metadata><sodipodi:namedview
   pagecolor="#ffffff"
   bordercolor="#666666"
   borderopacity="1"
   objecttolerance="10"
   gridtolerance="10"
   guidetolerance="10"
   inkscape:pageopacity="0"
   inkscape:pageshadow="2"
   inkscape:window-width="640"
   inkscape:window-height="480"
   id="namedview87"
   showgrid="false"
   inkscape:zoom="1.8365233"
   inkscape:cx="37.655185"
   inkscape:cy="18.900351"
   inkscape:window-x="0"
   inkscape:window-y="0"
   inkscape:window-maximized="0"
   inkscape:current-layer="svg85" />
	<style
   type="text/css"
   id="style2">
	<![CDATA[
		.st1 {fill:url(#grad0-6);stroke:none;stroke-linecap:butt;stroke-width:0.75}
		.st2 {fill:url(#grad0-10);stroke:none;stroke-linecap:butt;stroke-width:0.75}
		.st3 {fill:url(#grad0-14);stroke:none;stroke-linecap:butt;stroke-width:0.75}
		.st4 {fill:#000000;fill-opacity:0.32;stroke:none;stroke-linecap:butt;stroke-width:0.75}
		.st5 {fill:#000000;fill-opacity:0.24;stroke:none;stroke-linecap:butt;stroke-width:0.75}
		.st6 {fill:url(#grad0-22);stroke:none;stroke-linecap:butt;stroke-width:0.75}
		.st7 {fill:url(#grad0-26);stroke:none;stroke-linecap:butt;stroke-width:0.75}
		.st8 {fill:url(#grad0-30);stroke:none;stroke-linecap:butt;stroke-width:0.75}
		.st9 {fill:none;fill-rule:evenodd;font-size:12px;overflow:visible;stroke-linecap:square;stroke-miterlimit:3}
	]]>
	</style>

	<defs
   id="Patterns_And_Gradients">
		<linearGradient
   id="grad0-6"
   x1="0.0982716"
   y1="72.687837"
   x2="30.389322"
   y2="72.687837"
   gradientTransform="scale(1.0684674,0.93592)"
   gradientUnits="userSpaceOnUse">
			<stop
   offset="0"
   stop-color="#7151a7"
   stop-opacity="1"
   id="stop4" />
			<stop
   offset="1"
   stop-color="#4a356f"
   stop-opacity="1"
   id="stop6" />
		</linearGradient>
		<linearGradient
   id="grad0-10"
   x1="0"
   y1="72.687837"
   x2="30.291051"
   y2="72.687837"
   gradientTransform="scale(1.0684674,0.93592)"
   gradientUnits="userSpaceOnUse">
			<stop
   offset="0"
   stop-color="#cd9ef0"
   stop-opacity="1"
   id="stop9" />
			<stop
   offset="1"
   stop-color="#8661c5"
   stop-opacity="1"
   id="stop11" />
		</linearGradient>
		<linearGradient
   id="grad0-14"
   x1="0"
   y1="72.687837"
   x2="30.291051"
   y2="72.687837"
   gradientTransform="scale(1.0684674,0.93592)"
   gradientUnits="userSpaceOnUse">
			<stop
   offset="0"
   stop-color="#f1d9ff"
   stop-opacity="1"
   id="stop14" />
			<stop
   offset="1"
   stop-color="#e4b4ff"
   stop-opacity="1"
   id="stop16" />
		</linearGradient>
		<linearGradient
   id="grad0-22"
   x1="0"
   y1="64.060405"
   x2="32.754066"
   y2="64.060405"
   gradientTransform="scale(1.0045288,0.99549166)"
   gradientUnits="userSpaceOnUse">
			<stop
   offset="0"
   stop-color="#cd9ef0"
   stop-opacity="1"
   id="stop19" />
			<stop
   offset="1"
   stop-color="#9f75d3"
   stop-opacity="1"
   id="stop21" />
		</linearGradient>
		<linearGradient
   id="grad0-26"
   x1="0"
   y1="64.060405"
   x2="32.754066"
   y2="64.060405"
   gradientTransform="scale(1.0045288,0.99549166)"
   gradientUnits="userSpaceOnUse">
			<stop
   offset="0"
   stop-color="#ebc7ff"
   stop-opacity="1"
   id="stop24" />
			<stop
   offset="1"
   stop-color="#e4b4ff"
   stop-opacity="1"
   id="stop26" />
		</linearGradient>
		<linearGradient
   id="grad0-30"
   x1="0"
   y1="64.060405"
   x2="32.754066"
   y2="64.060405"
   gradientTransform="scale(1.0045288,0.99549166)"
   gradientUnits="userSpaceOnUse">
			<stop
   offset="0"
   stop-color="#f8ecff"
   stop-opacity="1"
   id="stop29" />
			<stop
   offset="0.925"
   stop-color="#f1d9ff"
   stop-opacity="1"
   id="stop31" />
		</linearGradient>
	</defs>
	<g
   id="g83"
   transform="translate(-5.7743772,-5.6678)">
		<title
   id="title35">Page-1</title>
		<g
   id="group21406-1"
   transform="translate(5.66929,-34.0157)">
			<title
   id="title37">Application Connected Store.21406</title>
			<g
   id="group21407-2">
				<title
   id="title39">Sheet.21407</title>
				<g
   id="shape21408-3"
   transform="translate(0,-14.1733)">
					<title
   id="title41">Sheet.21408</title>
					<path
   d="M 0.42,81.03 C 0,81.76 0,82.65 0.42,83.38 l 6.82,11.81 c 0.42,0.73 1.21,1.19 2.07,1.19 H 24.29 L 32.47,82.2 24.29,68.03 H 9.31 c -0.86,0 -1.65,0.46 -2.07,1.19 z"
   class="st1"
   id="path43"
   inkscape:connector-curvature="0"
   style="fill:url(#grad0-6);stroke:none;stroke-width:0.75;stroke-linecap:butt" />
				</g>
				<g
   id="shape21409-7"
   transform="translate(24.2192)">
					<title
   id="title46">Sheet.21409</title>
					<path
   d="m 0,82.2 7.5,12.99 c 0.42,0.73 1.21,1.19 2.07,1.19 h 13.6 c 0.85,0 1.64,-0.46 2.07,-1.19 l 6.81,-11.81 c 0.42,-0.73 0.42,-1.62 0,-2.35 l -7.5,-13 H 8.18 Z"
   class="st2"
   id="path48"
   inkscape:connector-curvature="0"
   style="fill:url(#grad0-10);stroke:none;stroke-width:0.75;stroke-linecap:butt" />
				</g>
				<g
   id="shape21410-11"
   transform="translate(24.2192,-28.3465)">
					<title
   id="title51">Sheet.21410</title>
					<path
   d="m 0,82.2 8.18,14.18 h 16.37 l 7.5,-13 c 0.42,-0.73 0.42,-1.62 0,-2.35 L 25.24,69.22 C 24.81,68.49 24.02,68.03 23.17,68.03 H 9.57 c -0.86,0 -1.65,0.46 -2.07,1.19 z"
   class="st3"
   id="path53"
   inkscape:connector-curvature="0"
   style="fill:url(#grad0-14);stroke:none;stroke-width:0.75;stroke-linecap:butt" />
				</g>
				<g
   id="shape21411-15"
   transform="translate(15.8711,-10.8641)">
					<title
   id="title56">Sheet.21411</title>
					<ellipse
   cx="16.4512"
   cy="80.074799"
   rx="16.4512"
   ry="16.3032"
   class="st4"
   id="ellipse58"
   style="fill:#000000;fill-opacity:0.31999996;stroke:none;stroke-width:0.75;stroke-linecap:butt" />
				</g>
				<g
   id="shape21412-17"
   transform="translate(15.8711,-11.8208)">
					<title
   id="title61">Sheet.21412</title>
					<ellipse
   cx="16.4512"
   cy="80.074799"
   rx="16.4512"
   ry="16.3032"
   class="st5"
   id="ellipse63"
   style="fill:#000000;fill-opacity:0.23999999;stroke:none;stroke-width:0.75;stroke-linecap:butt" />
				</g>
				<g
   id="shape21413-19"
   transform="translate(15.8711,-12.0432)">
					<title
   id="title66">Sheet.21413</title>
					<ellipse
   cx="16.4512"
   cy="80.074799"
   rx="16.4512"
   ry="16.3032"
   class="st6"
   id="ellipse68"
   style="fill:url(#grad0-22);stroke:none;stroke-width:0.75;stroke-linecap:butt" />
				</g>
				<g
   id="shape21414-23"
   transform="translate(15.8711,-12.0432)">
					<title
   id="title71">Sheet.21414</title>
					<ellipse
   cx="16.4512"
   cy="80.074799"
   rx="16.4512"
   ry="16.3032"
   class="st7"
   id="ellipse73"
   style="fill:url(#grad0-26);stroke:none;stroke-width:0.75;stroke-linecap:butt" />
				</g>
				<g
   id="shape21415-27"
   transform="translate(15.8711,-12.0432)">
					<title
   id="title76">Sheet.21415</title>
					<ellipse
   cx="16.4512"
   cy="80.074799"
   rx="16.4512"
   ry="16.3032"
   class="st8"
   id="ellipse78"
   style="fill:url(#grad0-30);stroke:none;stroke-width:0.75;stroke-linecap:butt" />
				</g>
			</g>
		</g>
	</g>
</svg>

<?xml version="1.0" encoding="UTF-8" standalone="no"?>
<!DOCTYPE svg PUBLIC "-//W3C//DTD SVG 1.1//EN" "http://www.w3.org/Graphics/SVG/1.1/DTD/svg11.dtd">
<!-- Generated by Microsoft Visio, SVG Export Application Connected Store.svg Page-1 -->
<svg xmlns="http://www.w3.org/2000/svg" xmlns:xlink="http://www.w3.org/1999/xlink" xmlns:ev="http://www.w3.org/2001/xml-events"
		width="0.944882in" height="1.33858in" viewBox="0 0 68.0315 96.378" xml:space="preserve" color-interpolation-filters="sRGB"
		class="st9">
	<style type="text/css">
	<![CDATA[
		.st1 {fill:url(#grad0-6);stroke:none;stroke-linecap:butt;stroke-width:0.75}
		.st2 {fill:url(#grad0-10);stroke:none;stroke-linecap:butt;stroke-width:0.75}
		.st3 {fill:url(#grad0-14);stroke:none;stroke-linecap:butt;stroke-width:0.75}
		.st4 {fill:#000000;fill-opacity:0.32;stroke:none;stroke-linecap:butt;stroke-width:0.75}
		.st5 {fill:#000000;fill-opacity:0.24;stroke:none;stroke-linecap:butt;stroke-width:0.75}
		.st6 {fill:url(#grad0-22);stroke:none;stroke-linecap:butt;stroke-width:0.75}
		.st7 {fill:url(#grad0-26);stroke:none;stroke-linecap:butt;stroke-width:0.75}
		.st8 {fill:url(#grad0-30);stroke:none;stroke-linecap:butt;stroke-width:0.75}
		.st9 {fill:none;fill-rule:evenodd;font-size:12px;overflow:visible;stroke-linecap:square;stroke-miterlimit:3}
	]]>
	</style>

	<defs id="Patterns_And_Gradients">
		<linearGradient id="grad0-6" x1="0" y1="0" x2="1" y2="0" gradientTransform="rotate(72.273541674923 0.5 0.5)">
			<stop offset="0" stop-color="#7151a7" stop-opacity="1"/>
			<stop offset="1" stop-color="#4a356f" stop-opacity="1"/>
		</linearGradient>
		<linearGradient id="grad0-10" x1="0" y1="0" x2="1" y2="0" gradientTransform="rotate(39.168166230312 0.5 0.5)">
			<stop offset="0" stop-color="#cd9ef0" stop-opacity="1"/>
			<stop offset="1" stop-color="#8661c5" stop-opacity="1"/>
		</linearGradient>
		<linearGradient id="grad0-14" x1="0" y1="0" x2="1" y2="0" gradientTransform="rotate(62.235388459347 0.5 0.5)">
			<stop offset="0" stop-color="#f1d9ff" stop-opacity="1"/>
			<stop offset="1" stop-color="#e4b4ff" stop-opacity="1"/>
		</linearGradient>
		<linearGradient id="grad0-22" x1="0" y1="0" x2="1" y2="0" gradientTransform="rotate(72.007969331982 0.5 0.5)">
			<stop offset="0" stop-color="#cd9ef0" stop-opacity="1"/>
			<stop offset="1" stop-color="#9f75d3" stop-opacity="1"/>
		</linearGradient>
		<linearGradient id="grad0-26" x1="0" y1="0" x2="1" y2="0" gradientTransform="rotate(52.736689512428 0.5 0.5)">
			<stop offset="0" stop-color="#ebc7ff" stop-opacity="1"/>
			<stop offset="1" stop-color="#e4b4ff" stop-opacity="1"/>
		</linearGradient>
		<linearGradient id="grad0-30" x1="0" y1="0" x2="1" y2="0" gradientTransform="rotate(47.69112707711 0.5 0.5)">
			<stop offset="0" stop-color="#f8ecff" stop-opacity="1"/>
			<stop offset="0.925" stop-color="#f1d9ff" stop-opacity="1"/>
		</linearGradient>
	</defs>
	<g>
		<title>Page-1</title>
		<g id="group20931-1" transform="translate(5.66929,-34.0157)">
			<title>Application Connected Store.20931</title>
			<g id="group20932-2">
				<title>Sheet.20932</title>
				<g id="shape20933-3" transform="translate(0,-14.1733)">
					<title>Sheet.20933</title>
					<path d="M0.42 81.03 C0 81.76 0 82.65 0.42 83.38 L7.24 95.19 C7.66 95.92 8.45 96.38 9.31 96.38 L24.29 96.38 L32.47
								 82.2 L24.29 68.03 L9.31 68.03 C8.45 68.03 7.66 68.49 7.24 69.22 L0.42 81.03 Z" class="st1"/>
				</g>
				<g id="shape20934-7" transform="translate(24.2192,-2.70006E-13)">
					<title>Sheet.20934</title>
					<path d="M0 82.2 L7.5 95.19 C7.92 95.92 8.71 96.38 9.57 96.38 L23.17 96.38 C24.02 96.38 24.81 95.92 25.24 95.19
								 L32.05 83.38 C32.47 82.65 32.47 81.76 32.05 81.03 L24.55 68.03 L8.18 68.03 L0 82.2 Z" class="st2"/>
				</g>
				<g id="shape20935-11" transform="translate(24.2192,-28.3465)">
					<title>Sheet.20935</title>
					<path d="M0 82.2 L8.18 96.38 L24.55 96.38 L32.05 83.38 C32.47 82.65 32.47 81.76 32.05 81.03 L25.24 69.22 C24.81
								 68.49 24.02 68.03 23.17 68.03 L9.57 68.03 C8.71 68.03 7.92 68.49 7.5 69.22 L0 82.2 Z" class="st3"/>
				</g>
				<g id="shape20936-15" transform="translate(15.8711,-10.8641)">
					<title>Sheet.20936</title>
					<ellipse cx="16.4512" cy="80.0748" rx="16.4512" ry="16.3032" class="st4"/>
				</g>
				<g id="shape20937-17" transform="translate(15.8711,-11.8208)">
					<title>Sheet.20937</title>
					<ellipse cx="16.4512" cy="80.0748" rx="16.4512" ry="16.3032" class="st5"/>
				</g>
				<g id="shape20938-19" transform="translate(15.8711,-12.0432)">
					<title>Sheet.20938</title>
					<ellipse cx="16.4512" cy="80.0748" rx="16.4512" ry="16.3032" class="st6"/>
				</g>
				<g id="shape20939-23" transform="translate(15.8711,-12.0432)">
					<title>Sheet.20939</title>
					<ellipse cx="16.4512" cy="80.0748" rx="16.4512" ry="16.3032" class="st7"/>
				</g>
				<g id="shape20940-27" transform="translate(15.8711,-12.0432)">
					<title>Sheet.20940</title>
					<ellipse cx="16.4512" cy="80.0748" rx="16.4512" ry="16.3032" class="st8"/>
				</g>
			</g>
		</g>
	</g>
</svg>
